src/assets/billing/discover.svg

<svg width="34" height="17" viewBox="0 0 34 17" fill="none" xmlns="http://www.w3.org/2000/svg">
<rect width="33.7518" height="17" fill="white"/>
<mask id="mask0_72_762" style="mask-type:luminance" maskUnits="userSpaceOnUse" x="14" y="9" width="20" height="8">
<path fill-rule="evenodd" clip-rule="evenodd" d="M33.5918 16.2917V9.20837H14.397L14.397 16.2917H33.5918Z" fill="white"/>
</mask>
<g mask="url(#mask0_72_762)">
<path fill-rule="evenodd" clip-rule="evenodd" d="M33.5918 9.20837C33.5918 9.20837 26.8128 14.1017 14.397 16.2917H33.5918V9.20837Z" fill="#F4811F"/>
</g>
<rect x="8.19141" y="0.25" width="25.5584" height="16.5" stroke="white" stroke-width="0.5"/>
<path fill-rule="evenodd" clip-rule="evenodd" d="M6.93802 5.25873H5.95605V8.93332H6.93251C7.45224 8.93332 7.82629 8.80196 8.15545 8.50959C8.54603 8.16297 8.77755 7.6384 8.77755 7.09772C8.77755 6.01297 8.02158 5.25873 6.93802 5.25873ZM7.71999 8.01893C7.50817 8.22317 7.23649 8.31131 6.80417 8.31131H6.62463V5.87994H6.80417C7.23649 5.87994 7.49793 5.96299 7.71999 6.1774C7.95072 6.39859 8.08853 6.74012 8.08853 7.09266C8.08853 7.44605 7.95072 7.79944 7.71999 8.01893Z" fill="#001722"/>
<path fill-rule="evenodd" clip-rule="evenodd" d="M9.08545 5.25873H9.75322V8.93332H9.08545V5.25873Z" fill="#001722"/>
<path fill-rule="evenodd" clip-rule="evenodd" d="M11.3879 6.66803C10.9863 6.50871 10.8681 6.40362 10.8681 6.20616C10.8681 5.97396 11.0784 5.79769 11.3674 5.79769C11.5674 5.79769 11.732 5.88582 11.9068 6.0943L12.2557 5.60531C11.969 5.33413 11.6241 5.19684 11.2485 5.19684C10.6429 5.19684 10.1799 5.64853 10.1799 6.24854C10.1799 6.75617 10.3957 7.01549 11.0225 7.25871C11.2847 7.35701 11.4186 7.42312 11.4855 7.46803C11.6186 7.5621 11.6863 7.69346 11.6863 7.84769C11.6863 8.146 11.4642 8.36634 11.1658 8.36634C10.8477 8.36634 10.5909 8.19515 10.4366 7.87566L10.0059 8.32227C10.313 8.80702 10.6831 9.02227 11.1926 9.02227C11.8863 9.02227 12.3738 8.52566 12.3738 7.81549C12.3738 7.23074 12.1486 6.96634 11.3879 6.66803Z" fill="#001722"/>
<path fill-rule="evenodd" clip-rule="evenodd" d="M12.585 7.0977C12.585 8.17906 13.3756 9.01635 14.3938 9.01635C14.6812 9.01635 14.9277 8.95533 15.2308 8.80194V7.95872C14.9639 8.24516 14.7269 8.36041 14.4237 8.36041C13.7512 8.36041 13.2732 7.83668 13.2732 7.09261C13.2732 6.38753 13.7662 5.83075 14.3938 5.83075C14.7119 5.83075 14.9537 5.95193 15.2308 6.24431V5.40024C14.9387 5.24091 14.6969 5.17566 14.4095 5.17566C13.3968 5.17566 12.585 6.0299 12.585 7.0977Z" fill="#001722"/>
<path fill-rule="evenodd" clip-rule="evenodd" d="M20.6472 7.72738L19.7321 5.25873H19.0029L20.4574 9.02738H20.8165L22.2961 5.25873H21.5724L20.6472 7.72738Z" fill="#001722"/>
<path fill-rule="evenodd" clip-rule="evenodd" d="M22.6001 8.93332H24.4963V8.31128H23.2679V7.3189H24.4491V6.69602H23.2679V5.87992H24.4963V5.25873H22.6001V8.93332Z" fill="#001722"/>
<path fill-rule="evenodd" clip-rule="evenodd" d="M27.1411 6.34263C27.1411 5.65449 26.7001 5.25873 25.9292 5.25873H24.937V8.93332H25.6056V7.45619H25.693L26.6175 8.93332H27.4396L26.36 7.38501C26.8647 7.27484 27.1411 6.90534 27.1411 6.34263ZM25.8002 6.95029H25.6057V5.83588H25.8112C26.2278 5.83588 26.4546 6.02401 26.4546 6.38164C26.4546 6.75029 26.2278 6.95029 25.8002 6.95029Z" fill="#001722"/>
<path fill-rule="evenodd" clip-rule="evenodd" d="M27.6257 5.53848C27.6257 5.46928 27.5831 5.43243 27.5054 5.43243H27.4019V5.77575H27.4779V5.64274L27.5672 5.77575H27.6624L27.5555 5.63375C27.6006 5.62117 27.6257 5.58522 27.6257 5.53848ZM27.4915 5.58432H27.4781V5.49445H27.4932C27.5307 5.49445 27.5491 5.51062 27.5491 5.53938C27.5491 5.56904 27.5299 5.58432 27.4915 5.58432Z" fill="#231F20"/>
<path fill-rule="evenodd" clip-rule="evenodd" d="M27.5143 5.31042C27.3686 5.31042 27.2505 5.4367 27.2505 5.59348C27.2505 5.7511 27.3694 5.87653 27.5143 5.87653C27.6576 5.87653 27.7742 5.74941 27.7742 5.59348C27.7742 5.43839 27.6576 5.31042 27.5143 5.31042ZM27.514 5.82568C27.3959 5.82568 27.3022 5.72229 27.3022 5.59433C27.3022 5.46466 27.3959 5.36212 27.514 5.36212C27.6274 5.36212 27.7211 5.46721 27.7211 5.59433C27.7211 5.72144 27.6274 5.82568 27.514 5.82568Z" fill="#231F20"/>
<path fill-rule="evenodd" clip-rule="evenodd" d="M17.3126 5.18835C16.3038 5.18835 15.4849 6.03497 15.4849 7.07734C15.4849 8.18752 16.2684 9.01633 17.3126 9.01633C18.3308 9.01633 19.1356 8.1765 19.1356 7.09938C19.1356 6.02988 18.3363 5.18835 17.3126 5.18835Z" fill="#F58220"/>
<mask id="mask1_72_762" style="mask-type:luminance" maskUnits="userSpaceOnUse" x="15" y="5" width="5" height="5">
<path fill-rule="evenodd" clip-rule="evenodd" d="M17.3126 5.18835C16.3038 5.18835 15.4849 6.03497 15.4849 7.07734C15.4849 8.18752 16.2684 9.01633 17.3126 9.01633C18.3308 9.01633 19.1356 8.1765 19.1356 7.09938C19.1356 6.02988 18.3363 5.18835 17.3126 5.18835Z" fill="white"/>
</mask>
<g mask="url(#mask1_72_762)">
</g>
</svg>

<svg xmlns="http://www.w3.org/2000/svg" width="34" height="17" fill="none">
    <path fill="#fff" d="M0 0h33.75v17H0z" />
    <mask id="a" width="20" height="8" x="14" y="9" maskUnits="userSpaceOnUse"
        style="mask-type:luminance">
        <path fill="#fff" fill-rule="evenodd" d="M33.6 16.3V9.2H14.4v7.1h19.2Z" clip-rule="evenodd" />
    </mask>
    <g mask="url(#a)">
        <path fill="#F4811F" fill-rule="evenodd" d="M33.6 9.2s-6.79 4.9-19.2 7.1h19.2V9.2Z"
            clip-rule="evenodd" />
    </g>
    <path stroke="#fff" stroke-width=".5" d="M8.19.25h25.56v16.5H8.19z" />
    <path fill="#001722" fill-rule="evenodd"
        d="M6.94 5.26h-.98v3.67h.97c.52 0 .9-.13 1.23-.42.39-.35.62-.87.62-1.41 0-1.09-.76-1.84-1.84-1.84Zm.78 2.76c-.21.2-.48.3-.92.3h-.18V5.87h.18c.44 0 .7.08.92.3.23.22.37.56.37.91 0 .36-.14.7-.37.93ZM9.09 5.26h.66v3.67H9.1V5.26ZM11.39 6.67c-.4-.16-.52-.27-.52-.46 0-.24.2-.41.5-.41.2 0 .36.09.54.3l.35-.5c-.3-.27-.64-.4-1.01-.4-.6 0-1.07.45-1.07 1.05 0 .5.22.77.84 1 .26.1.4.17.47.22.13.1.2.22.2.38a.5.5 0 0 1-.52.52c-.32 0-.58-.17-.73-.5l-.43.45c.3.49.67.7 1.18.7.7 0 1.18-.5 1.18-1.2 0-.59-.22-.85-.98-1.15ZM12.59 7.1c0 1.08.79 1.92 1.8 1.92.3 0 .54-.06.84-.22v-.84c-.27.29-.5.4-.8.4-.68 0-1.16-.52-1.16-1.27 0-.7.5-1.26 1.12-1.26.32 0 .56.12.84.41V5.4c-.3-.16-.53-.22-.82-.22-1.01 0-1.82.85-1.82 1.92ZM20.65 7.73l-.92-2.47H19l1.46 3.77h.36l1.48-3.77h-.73l-.92 2.47ZM22.6 8.93h1.9v-.62h-1.23v-1h1.18V6.7h-1.18v-.82h1.23v-.62h-1.9v3.67ZM27.14 6.34c0-.69-.44-1.08-1.21-1.08h-1v3.67h.68V7.46h.08l.93 1.47h.82L26.36 7.4c.5-.12.78-.48.78-1.05Zm-1.34.61h-.2V5.84h.21c.42 0 .64.18.64.54 0 .37-.22.57-.65.57Z"
        clip-rule="evenodd" />
    <path fill="#231F20" fill-rule="evenodd"
        d="M27.63 5.54c0-.07-.05-.1-.12-.1h-.1v.34h.07v-.14l.09.14h.1l-.11-.15c.04 0 .07-.04.07-.1Zm-.14.04h-.01V5.5h.01c.04 0 .06.02.06.05 0 .03-.02.04-.06.04Z"
        clip-rule="evenodd" />
    <path fill="#231F20" fill-rule="evenodd"
        d="M27.51 5.31c-.14 0-.26.13-.26.28 0 .16.12.29.26.29.15 0 .26-.13.26-.29 0-.15-.11-.28-.26-.28Zm0 .52c-.11 0-.2-.1-.2-.24 0-.13.09-.23.2-.23.12 0 .21.1.21.23s-.1.24-.2.24Z"
        clip-rule="evenodd" />
    <path fill="#F58220" fill-rule="evenodd"
        d="M17.31 5.19c-1 0-1.83.84-1.83 1.89 0 1.1.79 1.94 1.83 1.94 1.02 0 1.83-.84 1.83-1.92 0-1.07-.8-1.91-1.83-1.91Z"
        clip-rule="evenodd" />
    <mask id="b" width="5" height="5" x="15" y="5" maskUnits="userSpaceOnUse"
        style="mask-type:luminance">
        <path fill="#fff" fill-rule="evenodd"
            d="M17.31 5.19c-1 0-1.83.84-1.83 1.89 0 1.1.79 1.94 1.83 1.94 1.02 0 1.83-.84 1.83-1.92 0-1.07-.8-1.91-1.83-1.91Z"
            clip-rule="evenodd" />
    </mask>
</svg>
